X:1
T:Morpeth Rant, Billy Pigg
S:Johnny Adams <j.adams:salford.ac.uk> tradtunes 2001-20-16
M:4/4
L:1/8
S:Billy Pigg
Z:C.G.P
K:D
|: (3ABc | d2AG FDFA | BGBd cABc | dfaf gfed | cdec A2Bc |
d2AG FDFA | BGBd cABc | dfaf gfec | A2d2 d2 :|
A2 | dfaf dfaf | gfga g2ef | gfed cdeg | fefg f2f2 |
dfaf dfaf | gfga g2ef | gfed ceag | f2d2 d2 :|
